www/assets/icons/perm_media.svg

<svg xmlns="http://www.w3.org/2000/svg" width="24" height="24" viewBox="0 0 24 24" fill='currentColor'><path d="M2 6H0v5h.01L0 20c0 1.1.9 2 2 2h18v-2H2zm20-2h-8l-2-2H6c-1.1 0-1.99.9-1.99 2L4 16c0 1.1.9 2 2 2h16c1.1 0 2-.9 2-2V6c0-1.1-.9-2-2-2M7 15l4.5-6 3.5 4.51 2.5-3.01L21 15z"/></svg>

<svg width="24" height="24" viewBox="0 0 24 24" xmlns="http://www.w3.org/2000/svg" fill='currentColor'><path d="M2 6H0V11H0.01L0 20C0 21.1 0.9 22 2 22H20V20H2V6ZM22 4H14L12 2H6C4.9 2 4.01 2.9 4.01 4L4 16C4 17.1 4.9 18 6 18H22C23.1 18 24 17.1 24 16V6C24 4.9 23.1 4 22 4ZM7 15L11.5 9L15 13.51L17.5 10.5L21 15H7Z"/></svg>
